X: 6986
T: Chicago, The
R: jig
M: 6/8
K: Gmajor
AG|:F2D DAG|F2D DAG|F2D DED|C2A, A,AG|
F2D DAG|F2D DED|B2B cAF|1 AGF GAG:|2 AGF G3||
|:B2B cde|dcB ABc|B2B GAB|AFD D3|
B2B cde|dcB ABc|B2B cAF|1 AGF G3:|2 AGF GAG||

